X:1
T:Title
%%score { 1 | 2 }
L:1/8
M:9/8
K:Bb
V:1 treble nm="Grand Piano"
V:2 bass 
V:1
 z3 z3[Q:1/4=107] [Fd]2 [Ec] | [DB]3- [DB]2 [CA] [Ec]2 [DB] | [FA]3 [EG]3 [Ge]2 [Fd] | %3
 [Fd]3- [Fd]2 [Ec] B2 [CA] |[M:3/4] [DB]6 |[M:3/8] [Fd]2 [Ec] | %6
[M:9/8] [DB]3- [DB]2 [CA] [Ec]2 [DB] | [FA]3 [EG]3 [EG]2 [FG] | [=Ec]3- [Ec]2 [Ec] [Ed]2 [Ec] | %9
[M:3/4] c6 |[M:3/8] F2 B |[M:9/8] B3 A3 F2 c | [Ec]3 [DB]3 B2 c | d3- d2 B e2 d |[M:3/4] [Ac]6 | %15
[M:3/8] [Af]2 [FAe] |[M:9/8] [FBd]3- [FBd]2 [EAc] [DGB]2 [C^FA] | [C^FA]3 [B,G]3 [B,GB]2 G | %18
 F3- F2 B c2 F | [^Fd]6 [Ge]2 [Gd] | [Gd]3- [Gd]2 [Gc] [FB]2 [EA] |[M:3/4] [DB]6 |] %22
V:2
 z3 z3 [B,,B,]3 | [B,,B,]6 [B,,B,]3 | [E,B,]3 [E,B,]3 [C,C]2 [C,G,] | %3
 [C,G,]3- [C,G,]2 [C,G,] [F,D]2 [F,,F,] |[M:3/4] [B,,F,]6 |[M:3/8] [B,,B,]3 | %6
[M:9/8] [B,,B,]6 [B,,B,]3 | [E,B,]3 [E,B,]3 [E,B,]2 [D,G,] | %8
 [C,G,]3- [C,G,]2 [C,G,] [C,B,]2 [C,B,] |[M:3/4] [F,A,F]6 |[M:3/8] [F,D]2 [F,D] | %11
[M:9/8] [F,D]3 [F,C]3 [F,A,E]2 [F,A,E] | [B,,A,]3 [B,,B,]3[K:treble] [B,DF]2 [B,EF] | %13
 [B,FB]3- [B,FB]2 [DF] [CFA]2 [B,FB] |[M:3/4][K:bass] [F,F]6 |[M:3/8] [F,C]2 F, | %16
[M:9/8] B,3- B,2 F, G,2 D, | D,3 D,3 E,2 [E,B,E] | [F,B,D]3- [F,B,D]2 [F,B,D] [F,A,F]2 [E,A,] | %19
 [D,A,]6 [C,C]2 [D,B,] | [E,G,]3- [E,G,]2 [E,C] [F,D]2 [F,C] |[M:3/4] [B,,F,B,]6 |] %22

